dist/svg/adjoining-room-duo-tone.svg

<svg xmlns="http://www.w3.org/2000/svg" viewBox="0 0 24 24"><path d="M11.82 3.276a.73.73 0 0 0-.538.515c-.06.216-.057 16.212.003 16.428.059.213.293.441.513.5.4.108.812-.12.92-.51.058-.207.058-16.211 0-16.418a.8.8 0 0 0-.353-.448.95.95 0 0 0-.545-.067M3.701 5.285q-.496.071-.925.495c-.286.282-.4.487-.478.854-.084.395-.084 10.337 0 10.732.077.366.192.571.478.858.287.286.492.401.858.478.389.083 5.343.083 5.732 0 .366-.077.571-.192.858-.478.286-.287.401-.492.478-.858.084-.395.084-10.337 0-10.732-.078-.367-.192-.572-.478-.854-.296-.292-.592-.445-.964-.498-.344-.05-5.219-.047-5.559.003m11 0q-.496.071-.925.495c-.286.282-.4.487-.478.854-.084.395-.084 10.337 0 10.732.077.366.192.571.478.858.287.286.492.401.858.478.389.083 5.343.083 5.732 0 .366-.077.571-.192.858-.478.286-.287.401-.492.478-.858.084-.395.084-10.337 0-10.732-.078-.367-.192-.572-.478-.854-.296-.292-.592-.445-.964-.498-.344-.05-5.219-.047-5.559.003M9.167 6.826c.07.064.073.276.073 5.167 0 4.69-.005 5.107-.066 5.174-.063.069-.198.073-2.667.073-2.364 0-2.607-.006-2.674-.066-.07-.064-.073-.276-.073-5.167 0-4.69.005-5.107.066-5.174.063-.069.198-.073 2.667-.073 2.364 0 2.607.006 2.674.066m11 0c.07.064.073.276.073 5.167 0 4.69-.005 5.107-.066 5.174-.063.069-.198.073-2.667.073-2.364 0-2.607-.006-2.674-.066-.07-.064-.073-.276-.073-5.167 0-4.69.005-5.107.066-5.174.063-.069.198-.073 2.667-.073 2.364 0 2.607.006 2.674.066M7.3 11.274c-.339.111-.54.38-.54.724 0 .263.114.479.332.631.143.098.2.111.57.125.252.009.466-.004.555-.033.422-.139.645-.6.481-.992-.151-.362-.397-.489-.938-.484a3 3 0 0 0-.46.029m11 0c-.339.111-.54.38-.54.724 0 .263.114.479.332.631.143.098.2.111.57.125.252.009.466-.004.555-.033.422-.139.645-.6.481-.992-.151-.362-.397-.489-.938-.484a3 3 0 0 0-.46.029" fill-rule="evenodd"/></svg>

<svg fill="none" xmlns="http://www.w3.org/2000/svg" viewBox="0 0 24 24"><path d="M11.820 3.276 C 11.554 3.342,11.353 3.534,11.282 3.791 C 11.222 4.007,11.225 20.003,11.285 20.219 C 11.344 20.432,11.578 20.660,11.798 20.719 C 12.198 20.827,12.610 20.599,12.718 20.209 C 12.776 20.002,12.776 3.998,12.718 3.791 C 12.670 3.617,12.514 3.419,12.365 3.343 C 12.224 3.271,11.967 3.240,11.820 3.276 M3.701 5.285 C 3.369 5.333,3.063 5.497,2.776 5.780 C 2.490 6.062,2.376 6.267,2.298 6.634 C 2.214 7.029,2.214 16.971,2.298 17.366 C 2.375 17.732,2.490 17.937,2.776 18.224 C 3.063 18.510,3.268 18.625,3.634 18.702 C 4.023 18.785,8.977 18.785,9.366 18.702 C 9.732 18.625,9.937 18.510,10.224 18.224 C 10.510 17.937,10.625 17.732,10.702 17.366 C 10.786 16.971,10.786 7.029,10.702 6.634 C 10.624 6.267,10.510 6.062,10.224 5.780 C 9.928 5.488,9.632 5.335,9.260 5.282 C 8.916 5.232,4.041 5.235,3.701 5.285 M14.701 5.285 C 14.369 5.333,14.063 5.497,13.776 5.780 C 13.490 6.062,13.376 6.267,13.298 6.634 C 13.214 7.029,13.214 16.971,13.298 17.366 C 13.375 17.732,13.490 17.937,13.776 18.224 C 14.063 18.510,14.268 18.625,14.634 18.702 C 15.023 18.785,19.977 18.785,20.366 18.702 C 20.732 18.625,20.937 18.510,21.224 18.224 C 21.510 17.937,21.625 17.732,21.702 17.366 C 21.786 16.971,21.786 7.029,21.702 6.634 C 21.624 6.267,21.510 6.062,21.224 5.780 C 20.928 5.488,20.632 5.335,20.260 5.282 C 19.916 5.232,15.041 5.235,14.701 5.285 M9.167 6.826 C 9.237 6.890,9.240 7.102,9.240 11.993 C 9.240 16.683,9.235 17.100,9.174 17.167 C 9.111 17.236,8.976 17.240,6.507 17.240 C 4.143 17.240,3.900 17.234,3.833 17.174 C 3.763 17.110,3.760 16.898,3.760 12.007 C 3.760 7.317,3.765 6.900,3.826 6.833 C 3.889 6.764,4.024 6.760,6.493 6.760 C 8.857 6.760,9.100 6.766,9.167 6.826 M20.167 6.826 C 20.237 6.890,20.240 7.102,20.240 11.993 C 20.240 16.683,20.235 17.100,20.174 17.167 C 20.111 17.236,19.976 17.240,17.507 17.240 C 15.143 17.240,14.900 17.234,14.833 17.174 C 14.763 17.110,14.760 16.898,14.760 12.007 C 14.760 7.317,14.765 6.900,14.826 6.833 C 14.889 6.764,15.024 6.760,17.493 6.760 C 19.857 6.760,20.100 6.766,20.167 6.826 M7.300 11.274 C 6.961 11.385,6.760 11.654,6.760 11.998 C 6.760 12.261,6.874 12.477,7.092 12.629 C 7.235 12.727,7.292 12.740,7.662 12.754 C 7.914 12.763,8.128 12.750,8.217 12.721 C 8.639 12.582,8.862 12.121,8.698 11.729 C 8.547 11.367,8.301 11.240,7.760 11.245 C 7.551 11.247,7.344 11.260,7.300 11.274 M18.300 11.274 C 17.961 11.385,17.760 11.654,17.760 11.998 C 17.760 12.261,17.874 12.477,18.092 12.629 C 18.235 12.727,18.292 12.740,18.662 12.754 C 18.914 12.763,19.128 12.750,19.217 12.721 C 19.639 12.582,19.862 12.121,19.698 11.729 C 19.547 11.367,19.301 11.240,18.760 11.245 C 18.551 11.247,18.344 11.260,18.300 11.274 " stroke="none" fill-rule="evenodd" fill="currentColor"/></svg>
